X: 4
T: The Britches Full Of Stitches
R: polka
M: 2/4
L: 1/8
K: Gmaj
|: G>A BG | AG BG | G2 BG | AG E2 |
G>A BG | AG Bd | G>A GE | ED D2 :|
|: d>e dB | AG AB | d>e dB | AG E2 |
d>e dB | AG AB | G>A GE | ED D2 :|


Tune 1075	Setting 1075

